X:5726
T:Gan Ainm
R:Reel
C:
S:Declan Corey (Mandola)
H:
N: 
D:Milltown Session 
Z:Adrian Scahill
M:4/4
L:1/8
K:D
DEFD EFDF|ADFA Bcd2|DE (3FED EFDF|GEFD EDB,D|\
DEFD EFDF|ADFA Bcd2|DE (3FED EFDF|AFEF D4:||\
dfaf gfeg|fedf edB2|dfaf gfeg|fedf e4|\
dfaf gfeg|fedf edB2|DE (3FED EFDF|AFEF D4:||


